!!!COM:	Bach, Johann Sebastian
!!!CDT:	1685/02/21/-1750/07/28/
!!!OTL@@DE:	Herzliebester Jesu, was hast du verbrochen
!!!SCT:	BWV 244/3
!!!PC#:	78
!!!AGN:	chorale
**kern	**kern	**kern	**kern
*ICvox	*ICvox	*ICvox	*ICvox
*Ibass	*Itenor	*Ialto	*Isoprn
*I"Bass	*I"Tenor	*I"Alto	*I"Soprano
*clefF4	*clefGv2	*clefG2	*clefG2
*k[f#c#]	*k[f#c#]	*k[f#c#]	*k[f#c#]
*b:	*b:	*b:	*b:
*M4/4	*M4/4	*M4/4	*M4/4
*met(c)	*met(c)	*met(c)	*met(c)
*MM100	*MM100	*MM100	*MM100
4B	4d	4f#	4b
=1	=1	=1	=1
8EL	4e	4g	4b
8F#J	.	.	.
4G	4B	8dL	4b
.	.	8eJ	.
4F#	8c#L	4f#	8a#L
.	8BJ	.	8g#J
8F#L	4A#	4c#	4f#
8EJ	.	.	.
=2	=2	=2	=2
4D	4B	4f#	4b
4F#	4A#	4f#	4cc#
4BB	8BL	4f#	4dd
.	8c#J	.	.
4B	4d	4f#	4dd
=3	=3	=3	=3
4A#	4c#	2f#	4ee
4B	4B	.	4dd
4F#;	4A#X;	4f#;	4cc#;
4F#	4A#	4f#	4cc#
=4	=4	=4	=4
4B	4B	4f#	4dd
4AnX	4c#	4a	4ee
4D	8dL	4a	8ff#L
.	8c#	.	8eeJ
8GL	8B	8bL	4dd
8AJ	8c#J	8aJ	.
=5	=5	=5	=5
4B	4d	4g	4gg
4c#	4e	4a	4gg
8dL	4e	4a	8ff#L
8c#	.	.	8eeJ
8B	4d	8ddL	4ff#
8AJ	.	8cc#J	.
=6	=6	=6	=6
4G	4d	4b	2ee
4A	4c#	8aL	.
.	.	8gJ	.
4D;	4d;	4f#;	4dd;
4BB	8BL	4f#	4dd
.	8AJ	.	.
=7	=7	=7	=7
8EL	4G	4e	4cc#
8F#J	.	.	.
4G	8GL	4d	4b
.	8F#J	.	.
4C#	8EL	4e	4a
.	8AJ	.	.
4D	4A	8dL	8f#L
.	.	8eJ	8gJ
=8	=8	=8	=8
8dL	4d	4f#	4a
8c	.	.	.
8B	4d	4f#	4a
8AJ	.	.	.
8GL	4d	4g	4b
8F#	.	.	.
8E	4cnX	4f#	4a
8D#J	.	.	.
=9	=9	=9	=9
2E	4.B	8f#L	2g
.	.	8d#J	.
.	.	4e	.
.	16A#LL	.	.
.	16BJJ	.	.
4AA#X;	4c#X;	4e;	4f#;
4BB	4B	4d	4ff#
=10	=10	=10	=10
4C#	8BL	4g	4ee
.	8A#J	.	.
8DL	4B	4f#	4dd
8EJ	.	.	.
4F#	4B	4.f#	2cc#
4FF#	4A#	.	.
.	.	8e	.
=11	=11	=11	=11
2.BB;	2.F#;	2.d#;	2.b;
==	==	==	==
*-	*-	*-	*-
!!!hum2abc: -Q ''
!!!title: @{PC#}. @{OTL@@DE}
!!!YOR1: 371 vierstimmige Choralges&auml;nge von Johann Sebastian Bach, 
!!!YOR2: 4th ed. by Alfred D&ouml;rffel (Leipzig: Breitkopf und H&auml;rtel, 
!!!YOR2: c.1875). 178 pp. Plate "V.A.10".  reprint: J.S. Bach, 371 Four-Part 
!!!YOR4: Chorales (New York: Associated Music Publishers, Inc., c.1940).
!!!SMS: B&H, 4th ed, Alfred D&ouml;rffel, c.1875, plate V.A.10
!!!EED:  Craig Stuart Sapp
!!!EEV:  2009/05/22
